svgs/duotone/badge-percent.svg

<svg xmlns="http://www.w3.org/2000/svg" viewBox="0 0 512 512"><!--! Font Awesome Pro 6.4.2 by @fontawesome - https://fontawesome.com License - https://fontawesome.com/license (Commercial License) Copyright 2023 Fonticons, Inc. --><path class="fa-primary" style="fill:var(--fa-primary-color,inherit);opacity:var(--fa-primary-opacity,1);" d="M224 192a32 32 0 1 0 -64 0 32 32 0 1 0 64 0zM352 320a32 32 0 1 0 -64 0 32 32 0 1 0 64 0zM337 209c9.4-9.4 9.4-24.6 0-33.9s-24.6-9.4-33.9 0L175 303c-9.4 9.4-9.4 24.6 0 33.9s24.6 9.4 33.9 0L337 209z"/><path class="fa-secondary" style="fill:var(--fa-secondary-color,inherit);opacity:var(--fa-secondary-opacity,.4);" d="M256 0c36.8 0 68.8 20.7 84.9 51.1C373.8 41 411 49 437 75s34 63.3 23.9 96.1C491.3 187.2 512 219.2 512 256s-20.7 68.8-51.1 84.9C471 373.8 463 411 437 437s-63.3 34-96.1 23.9C324.8 491.3 292.8 512 256 512s-68.8-20.7-84.9-51.1C138.2 471 101 463 75 437s-34-63.3-23.9-96.1C20.7 324.8 0 292.8 0 256s20.7-68.8 51.1-84.9C41 138.2 49 101 75 75s63.3-34 96.1-23.9C187.2 20.7 219.2 0 256 0zM192 224a32 32 0 1 0 0-64 32 32 0 1 0 0 64zm160 96a32 32 0 1 0 -64 0 32 32 0 1 0 64 0zM337 209c9.4-9.4 9.4-24.6 0-33.9s-24.6-9.4-33.9 0L175 303c-9.4 9.4-9.4 24.6 0 33.9s24.6 9.4 33.9 0L337 209z"/></svg>

<svg xmlns="http://www.w3.org/2000/svg" viewBox="0 0 512 512"><!--! Font Awesome Pro 6.1.1 by @fontawesome - https://fontawesome.com License - https://fontawesome.com/license (Commercial License) Copyright 2022 Fonticons, Inc. --><defs><style>.fa-secondary{opacity:.4}</style></defs><path class="fa-primary" d="M224 192C224 209.7 209.7 224 192 224C174.3 224 160 209.7 160 192C160 174.3 174.3 160 192 160C209.7 160 224 174.3 224 192zM352 320C352 337.7 337.7 352 320 352C302.3 352 288 337.7 288 320C288 302.3 302.3 288 320 288C337.7 288 352 302.3 352 320zM208.1 336.1C199.6 346.3 184.4 346.3 175 336.1C165.7 327.6 165.7 312.4 175 303L303 175C312.4 165.7 327.6 165.7 336.1 175C346.3 184.4 346.3 199.6 336.1 208.1L208.1 336.1z"/><path class="fa-secondary" d="M256 0C292.8 0 324.8 20.7 340.9 51.1C373.8 40.1 410.1 48.96 437 74.98C463 101 470.1 138.2 460.9 171.1C491.3 187.2 512 219.2 512 256C512 292.8 491.3 324.8 460.9 340.9C471 373.8 463 410.1 437 437C410.1 463 373.8 470.1 340.9 460.9C324.8 491.3 292.8 512 256 512C219.2 512 187.2 491.3 171.1 460.9C138.2 471 101 463 74.98 437C48.96 410.1 41 373.8 51.1 340.9C20.7 324.8 0 292.8 0 256C0 219.2 20.7 187.2 51.1 171.1C40.1 138.2 48.96 101 74.98 74.98C101 48.96 138.2 41 171.1 51.1C187.2 20.7 219.2 0 256 0V0zM192 224C209.7 224 224 209.7 224 192C224 174.3 209.7 160 192 160C174.3 160 160 174.3 160 192C160 209.7 174.3 224 192 224zM320 288C302.3 288 288 302.3 288 320C288 337.7 302.3 352 320 352C337.7 352 352 337.7 352 320C352 302.3 337.7 288 320 288zM336.1 208.1C346.3 199.6 346.3 184.4 336.1 175C327.6 165.7 312.4 165.7 303 175L175 303C165.7 312.4 165.7 327.6 175 336.1C184.4 346.3 199.6 346.3 208.1 336.1L336.1 208.1z"/></svg>
